!!!OTL: WER EINE GANS GESTOHLEN HAT
!!!ARE: Europa, Mitteleuropa, Deutschland, Berlin
!!!SCT: K2163
!!!YEM: Copyright 1995, estate of Helmut Schaffrath.
**kern
*ICvox
*Ivox
*M2/4
*k[b-e-]
*B-:
{8f
=1
8b-
8b-
8b-
8b-
=2
8b-
8g
8f}
{8f
=3
4g
4a
=4
4b-
8r}
{8f
=5
8b-
8b-
8b-
8b-
=6
8b-
8g
8f}
{8f
=7
4g
4a
=8
4b-
8r}
{8ff
=9
8dd
8b-
8cc
8a
=10
4b-
8r}
==
!!!AGN: Kinder - Lied, Reigen,  Tanz - Spiel
!!!ONB: ESAC (Essen Associative Code) Database: KINDER
!!!AMT: simple duple
!!!AIN: vox
!!!EED: Helmut Schaffrath
!!!EEV: 1.0
*-
